icons/device/microphone.svg

<svg width="32" height="32" viewBox="0 0 32 32" fill="none" xmlns="http://www.w3.org/2000/svg">
<path fill-rule="evenodd" clip-rule="evenodd" d="M12 2C10.8954 2 10 2.89543 10 4V20C10 21.1046 10.8954 22 12 22H20C21.1046 22 22 21.1046 22 20V4C22 2.89543 21.1046 2 20 2H12ZM12 4L20 4V20H12V4ZM6 20V16H8V20C8 22.2091 9.79086 24 12 24H15H17H20C22.2091 24 24 22.2091 24 20V16H26V20C26 23.3137 23.3137 26 20 26H17V28H22V30H10V28H15V26H12C8.68629 26 6 23.3137 6 20Z" fill="black"/>
</svg>

<svg width="32" height="32" viewBox="0 0 32 32" xmlns="http://www.w3.org/2000/svg">
    <path fill-rule="evenodd" d="M12 2a2 2 0 00-2 2v16a2 2 0 002 2h8a2 2 0 002-2V4a2 2 0 00-2-2h-8zm0 2h8v16h-8V4zM6 20v-4h2v4a4 4 0 004 4h8a4 4 0 004-4v-4h2v4a6 6 0 01-6 6h-3v2h5v2H10v-2h5v-2h-3a6 6 0 01-6-6z"/>
</svg>
